icon_installer/data/icons/scalable/actions/show-city-symbolic.svg

<?xml version="1.0" encoding="UTF-8"?>
<svg height="16px" viewBox="0 0 16 16" width="16px" xmlns="http://www.w3.org/2000/svg">
    <path d="m 6 0 v 4 h -1 v 2 h -1 v 9 h -1 v -9 h -3 v 10 h 16 v -1 h -1 v -4 h -1 v -8 l -3 3 v 5 h -1 v 4 h -1 v -9 h -1 v -2 h -1 v -4 z m 6.5 6 c 0.277344 0 0.5 0.222656 0.5 0.5 s -0.222656 0.5 -0.5 0.5 s -0.5 -0.222656 -0.5 -0.5 s 0.222656 -0.5 0.5 -0.5 z m -11.5 1 h 1 v 1 h -1 z m 4 0 h 3 v 1 h -3 z m 7.5 1 c 0.277344 0 0.5 0.222656 0.5 0.5 s -0.222656 0.5 -0.5 0.5 s -0.5 -0.222656 -0.5 -0.5 s 0.222656 -0.5 0.5 -0.5 z m -11.5 1 h 1 v 1 h -1 z m 4 0 h 3 v 1 h -3 z m 7.5 1.007812 c 0.277344 0 0.5 0.222657 0.5 0.5 c 0 0.277344 -0.222656 0.5 -0.5 0.5 s -0.5 -0.222656 -0.5 -0.5 c 0 -0.277343 0.222656 -0.5 0.5 -0.5 z m -11.5 0.992188 h 1 v 1 h -1 z m 4 0 h 3 v 1 h -3 z m 6 1 h 3 v 1 h -3 z m -10 1 h 1 v 1 h -1 z m 4 0 h 3 v 1 h -3 z m 0 0" fill="#222222"/>
</svg>

<svg xmlns="http://www.w3.org/2000/svg" width="16" height="16"><path fill="#222" d="M6 0v4H5v2H4v9H3V6H0v10h16v-1h-1v-4h-1V3l-3 3v5h-1v4H9V6H8V4H7V0zm6.5 6a.499.499 0 1 1 0 1 .499.499 0 1 1 0-1zM1 7h1v1H1zm4 0h3v1H5zm7.5 1a.499.499 0 1 1 0 1 .499.499 0 1 1 0-1zM1 9h1v1H1zm4 0h3v1H5zm7.5 1.008a.499.499 0 1 1-.5.5c0-.278.223-.5.5-.5zM1 11h1v1H1zm4 0h3v1H5zm6 1h3v1h-3zM1 13h1v1H1zm4 0h3v1H5zm0 0"/></svg>
